X:1
T: Nissångsvisan
R: Visa
S: Perjos Lars Halvarsson|utlärd av Perjos Lars Halvarsson
Z: Karin Arén
M: 3/4
L: 1/8
K: Am
E2|c2 c3 B | A2 A2 a2 | e2 e3 d | c4 A2 | d2 d3 d | g2 a2 g2 | f2 e4 |z4 e2 | 
e2^g2 b2 | a2 =g2 e2 | d2 e2 f2 | e4 c2 | B2 A3 B | c2 e2 c2 | B2 A4 |]

